!! 00000] TT[00
!! NN
!!!OTL: Mai douru
!!!ARE: Asia, China,ÿTaiwan
!! Ethnic Group: Han
!! IV, 626
!!!SCT: C0445
!!!YEM: Copyright 1995, estate of Helmut Schaffrath.
**kern
*ICvox
*Ivox
*M2/4
*k[f#]
*G:
{16a
16b
16a
16g
4e
=1
16g
16e
16g
16b
4a}
=2
{8a
16b
16dd
8a
16b
16dd
=3
8b
16e
16g
4a}
=4
{8g
8e
16b
16dd
16b
16a
=5
16g
16b
16a
16f#
4e}
=6
{8b
16ee
16dd
4b
=7
16b
16a
16g
16a
8b
8e}
=8
{8b
16b
16dd
8b
8a
=9
2b}
=10
{8a
8b
16a
16g
8e
=11
16g
16a
8b
16dd
16b
8a}
=12
{16g
16a
16b
16dd
16a
16g
16e
16d
=13
2e}
=14
{16g
16g
16e
16d
4B
=15
16g
16a
16b
16dd
4a}
=16
{8g
8e
16b
16dd
16b
16a
=17
8g
16a
16g
4e}
=18
{8b
16ee
16dd
4b
=19
16b
16a
16g
16a
8b
8e}
=20
{8b
16b
16dd
8b
8a
=21
2b}
==
!!!AGN: Xiaodiao. Jiaomai
!! Gibt es auch in Sued- Fujian.
!!!ONB: ESAC (Essen Associative Code) Database: CHINA
!!!AMT: simple duple
!!!AIN: vox
!!!EED: Helmut Schaffrath
!!!EEV: 1.0
*-
